X: 1
T: Big John McNeil
R: reel
M: 4/4
L: 1/8
K: Amaj
A2|:A,2 CE FECE|AECE FECE|A,2 CE FECE|FAGF EDCB,|
A,2 CE FECE|AECE FECE|A,CB,D CEDF|1EGBd (3cBA A2:|2EGBd (3cBA cd||
|:eAfA eAcd|eAfA e2 (3agf|eAfA eAce|dece B2 cd|
eAfA eAcd|eAfA e2 fg|agfe fedc|1defg a2 cd:|2defg a2 A2||


Tune 1002	Setting 23920

